svgs/sharp-light/square-left.svg

<svg xmlns="http://www.w3.org/2000/svg" viewBox="0 0 448 512"><!--! Font Awesome Pro 6.6.0 by @fontawesome - https://fontawesome.com License - https://fontawesome.com/license (Commercial License) Copyright 2024 Fonticons, Inc. --><path d="M32 64l384 0 0 384L32 448 32 64zM0 32L0 64 0 448l0 32 32 0 384 0 32 0 0-32 0-384 0-32-32 0L32 32 0 32zM224 224l96 0 0 64-96 0-32 0 0 32 0 18.7L109.3 256 192 173.3l0 18.7 0 32 32 0zM64 256l22.6 22.6L192 384l32 0 0-32 0-32 32 0 64 0 32 0 0-32 0-64 0-32-32 0-64 0-32 0 0-32 0-32-32 0L86.6 233.4 64 256z"/></svg>

<svg xmlns="http://www.w3.org/2000/svg" viewBox="0 0 448 512"><!--! Font Awesome Pro 6.4.2 by @fontawesome - https://fontawesome.com License - https://fontawesome.com/license (Commercial License) Copyright 2023 Fonticons, Inc. --><path d="M32 64l384 0 0 384L32 448 32 64zM0 32V64L0 448v32H32l384 0h32V448 64 32H416 32 0zM224 224l96 0v64l-96 0H192l0 32v18.7L109.3 256 192 173.3V192v32h32zM64 256l22.6 22.6L192 384h32V352 320h32 64 32V288 224l0-32H320 256l-32 0V160 128H192L86.6 233.4 64 256z"/></svg>
